X:24
T:Hpps simple chords 38
M:3/4
L:1/8
K:G
d>c [B2G,2B,2D2] B>A | B>d B>G [c2C,2E,2G,2] | c>B c>e c>A | [GG,B,D]>B d>f g>f | g>e [d2A,2C2E2]>e2 |
d>c B>A [B2G,2B,2D2] | B>A B>d B>G | [cC,E,G,]>B c>d e>f | g>e [dG,B,D]>B G>B |
c>A F>A [G2G,2B,2D2] | G>F G2 d>c | [B2G,2B,2D2] B>A B>d | B>G [c2C,2E,2G,2] c>B |
c>e c>A [GG,B,D]>B | d>f g>f g>e | [d2A,2C2E2]>e2 d>c | B>A [B2G,2B,2D2] B>A |
B>d B>G [cC,E,G,]>B | c>d e>f g>e | [dG,B,D]>B G>B c>A | F>A [G2G,2B,2D2] G>F |
G2 B>A [GG,B,D]>B | d>f g>f g>e | [d2A,2C2E2]>e2 d>c | B>A [GG,B,D]>B d>f |
g>f g>e [d3A,3C3E3] |e d>c B>A | [BG,B,D]>d G>d B>d | G>d [cA,CE]>e A>e |
c>e A>d [BG,B,D]>d | G>d B>d G>A | [FD,F,A,C]>A D>A F>A | D>d [BG,B,D]>d G>d |
B>d G>d [cC,E,G,]>B | c>d e>f g>e | [dG,B,D]>B G>B c>A | F>A [G2G,2B,2D2] G>F |
G2 B>A [GG,B,D]>B | d>f g>f g>e | [d2A,2C2E2]>e2 d>c | B>A [GG,B,D]>B d>f |
g>f g>e [d3A,3C3E3] |e d>c B>A | [BG,B,D]>d G>d B>d | G>d [cA,CE]>e A>e |
c>e A>d [BG,B,D]>d | G>d B>d G>A | [FD,F,A,C]>A D>A F>A | D>d [BG,B,D]>d G>d |
B>d G>d [cC,E,G,]>B | c>d e>f g>e | [dG,B,D]>B G>B c>A | F>A [G2G,2B,2D2] G>F |
G2 |


